src/assets/images/icons/github-img.svg

<svg width="64" height="64" viewBox="0 0 64 64" fill="none" xmlns="http://www.w3.org/2000/svg">
<path fill-rule="evenodd" clip-rule="evenodd" d="M32 0.799988C14.4 0.799988 0 15.2 0 32.8C0 46.9333 9.06667 58.9333 21.8667 63.2C23.4667 63.4667 24 62.4 24 61.6C24 60.8 24 58.9333 24 56.2667C15.2 58.1333 13.3333 52 13.3333 52C12 48.2667 9.86667 47.2 9.86667 47.2C6.66667 45.3333 9.86667 45.3333 9.86667 45.3333C13.0667 45.6 14.6667 48.5333 14.6667 48.5333C17.6 53.3333 22.1333 52 24 51.2C24.2667 49.0667 25.0667 47.7333 26.1333 46.9333C18.9333 46.1333 11.4667 43.4667 11.4667 31.2C11.4667 27.7333 12.8 24.8 14.6667 22.6667C14.6667 21.6 13.3333 18.4 15.2 14.1333C15.2 14.1333 17.8667 13.3333 24 17.3333C26.6667 16.5333 29.3333 16.2667 32 16.2667C34.6667 16.2667 37.3333 16.5333 40 17.3333C46.1333 13.0667 48.8 14.1333 48.8 14.1333C50.6667 18.6667 49.3333 21.8667 49.0667 22.6667C51.2 24.8 52.2667 27.7333 52.2667 31.2C52.2667 43.4667 44.8 46.1333 37.6 46.9333C38.6667 48 39.7333 49.8666 39.7333 52.8C39.7333 57.0667 39.7333 60.5333 39.7333 61.6C39.7333 62.4 40.2667 63.4667 41.8667 63.2C54.6667 58.9333 63.7333 46.9333 63.7333 32.8C64 15.2 49.6 0.799988 32 0.799988Z" fill="#101828"/>
</svg>

<svg width="64" height="64" fill="none" xmlns="http://www.w3.org/2000/svg"><path fill-rule="evenodd" clip-rule="evenodd" d="M32 .8C14.4.8 0 15.2 0 32.8a31.965 31.965 0 0 0 21.867 30.4c1.6.267 2.133-.8 2.133-1.6v-5.333C15.2 58.133 13.333 52 13.333 52 12 48.267 9.867 47.2 9.867 47.2c-3.2-1.867 0-1.867 0-1.867 3.2.267 4.8 3.2 4.8 3.2C17.6 53.333 22.133 52 24 51.2c.267-2.133 1.067-3.467 2.133-4.267-7.2-.8-14.666-3.466-14.666-15.733 0-3.467 1.333-6.4 3.2-8.533 0-1.067-1.334-4.267.533-8.534 0 0 2.667-.8 8.8 3.2 2.667-.8 5.333-1.066 8-1.066s5.333.266 8 1.066c6.133-4.266 8.8-3.2 8.8-3.2 1.867 4.534.533 7.734.267 8.534 2.133 2.133 3.2 5.066 3.2 8.533 0 12.267-7.467 14.933-14.667 15.733 1.067 1.067 2.133 2.934 2.133 5.867v8.8c0 .8.534 1.867 2.134 1.6a31.965 31.965 0 0 0 21.866-30.4C64 15.2 49.6.8 32 .8Z" fill="#101828"/></svg>
